static/img/device/component-fixing-screws4.svg

<svg width="93" height="84" viewBox="0 0 93 84" fill="none" xmlns="http://www.w3.org/2000/svg">
<g clip-path="url(#clip0_75_3384)">
<path d="M13.78 9.28999L19.33 3.15999L19.27 1.54999C19.21 -0.380006 0.170007 -0.160006 0.250007 2.20999L0.310007 3.82999L6.27001 9.55999L8.98001 66.91L11.75 77.69C12.02 78.6 12.86 78.52 13.01 77.64L15.03 66.7L13.77 9.29999L13.78 9.28999Z" fill="white"/>
<path d="M11.76 8.11999L14.15 2.51999" stroke="#B3B3B3" stroke-width="0.3" stroke-linecap="round" stroke-linejoin="round"/>
<path d="M7.29002 8.27L3.77002 3.09" stroke="#B3B3B3" stroke-width="0.3" stroke-linecap="round" stroke-linejoin="round"/>
<path d="M6.27002 9.54999C6.24002 8.61999 13.76 8.52999 13.78 9.28999" stroke="black" stroke-width="0.3" stroke-linecap="round" stroke-linejoin="round"/>
<path d="M0.310005 3.81999C0.230005 1.44999 19.27 1.22999 19.33 3.15999" stroke="black" stroke-width="0.3" stroke-linecap="round" stroke-linejoin="round"/>
<mask id="mask0_75_3384" style="mask-type:luminance" maskUnits="userSpaceOnUse" x="0" y="0" width="20" height="79">
<path d="M13.78 9.28999L19.33 3.15999L19.27 1.54999C19.21 -0.380006 0.170007 -0.160006 0.250007 2.20999L0.310007 3.82999L6.27001 9.55999L8.98001 66.91L11.75 77.69C12.02 78.6 12.86 78.52 13.01 77.64L15.03 66.7L13.77 9.29999L13.78 9.28999Z" fill="white"/>
</mask>
<g mask="url(#mask0_75_3384)">
<path d="M6.12 14.2C6.29 10.81 12.72 9.8 14.27 10.91" stroke="#999999" stroke-width="0.3" stroke-linecap="round" stroke-linejoin="round"/>
<path d="M6.28 18.26C6.45 14.89 12.84 13.89 14.37 15" stroke="#999999" stroke-width="0.3" stroke-linecap="round" stroke-linejoin="round"/>
<path d="M6.44 22.32C6.61 18.97 12.95 17.98 14.48 19.08" stroke="#999999" stroke-width="0.3" stroke-linecap="round" stroke-linejoin="round"/>
<path d="M6.60001 26.38C6.77001 23.05 13.06 22.07 14.58 23.16" stroke="#999999" stroke-width="0.3" stroke-linecap="round" stroke-linejoin="round"/>
<path d="M6.76999 30.44C6.93999 27.14 13.19 26.16 14.69 27.24" stroke="#999999" stroke-width="0.3" stroke-linecap="round" stroke-linejoin="round"/>
<path d="M6.92999 34.5C7.08999 31.22 13.3 30.25 14.8 31.33" stroke="#999999" stroke-width="0.3" stroke-linecap="round" stroke-linejoin="round"/>
<path d="M7.09 38.56C7.25 35.3 13.42 34.34 14.9 35.41" stroke="#999999" stroke-width="0.3" stroke-linecap="round" stroke-linejoin="round"/>
<path d="M7.26001 42.62C7.42001 39.39 13.54 38.43 15.01 39.49" stroke="#999999" stroke-width="0.3" stroke-linecap="round" stroke-linejoin="round"/>
<path d="M7.41998 46.69C7.57998 43.48 13.65 42.53 15.12 43.59" stroke="#999999" stroke-width="0.3" stroke-linecap="round" stroke-linejoin="round"/>
<path d="M7.57999 50.75C7.73999 47.57 13.77 46.62 15.22 47.67" stroke="#999999" stroke-width="0.3" stroke-linecap="round" stroke-linejoin="round"/>
<path d="M7.75 54.81C7.91 51.65 13.89 50.71 15.33 51.75" stroke="#999999" stroke-width="0.3" stroke-linecap="round" stroke-linejoin="round"/>
<path d="M7.91 58.87C8.07 55.73 14 54.8 15.43 55.84" stroke="#999999" stroke-width="0.3" stroke-linecap="round" stroke-linejoin="round"/>
<path d="M8.07001 62.93C8.23001 59.82 14.12 58.9 15.54 59.92" stroke="#999999" stroke-width="0.3" stroke-linecap="round" stroke-linejoin="round"/>
<path d="M8.23999 66.99C8.38999 63.9 14.24 62.99 15.65 64" stroke="#999999" stroke-width="0.3" stroke-linecap="round" stroke-linejoin="round"/>
<path d="M9.16 70.51C9.29 67.88 14.09 67.03 15.57 67.76" stroke="#999999" stroke-width="0.3" stroke-linecap="round" stroke-linejoin="round"/>
<path d="M10.02 73.64C10.13 71.56 14.06 70.94 15.01 71.63" stroke="#999999" stroke-width="0.3" stroke-linecap="round" stroke-linejoin="round"/>
<path d="M10.94 77.13C11.01 75.79 13.19 75.25 14.27 75.45" stroke="#999999" stroke-width="0.3" stroke-linecap="round" stroke-linejoin="round"/>
</g>
<path d="M13.78 9.28999L19.33 3.15999L19.27 1.54999C19.21 -0.380006 0.170007 -0.160006 0.250007 2.20999L0.310007 3.82999L6.27001 9.55999L8.98001 66.91L11.75 77.69C12.02 78.6 12.86 78.52 13.01 77.64L15.03 66.7L13.77 9.29999L13.78 9.28999Z" stroke="black" stroke-width="0.5" stroke-linecap="round" stroke-linejoin="round"/>
<path d="M36.73 16.22L43.49 11.46L43.79 9.86999C44.15 7.96999 25.52 4.01999 25.09 6.33999L24.79 7.92999L29.35 14.82L19.44 71.37L19.78 82.49C19.84 83.44 20.68 83.54 21.02 82.72L25.39 72.49L36.74 16.21L36.73 16.22Z" fill="white"/>
<path d="M35.01 14.64L38.57 9.7" stroke="#B3B3B3" stroke-width="0.3" stroke-linecap="round" stroke-linejoin="round"/>
<path d="M30.62 13.8L28.32 7.97" stroke="#B3B3B3" stroke-width="0.3" stroke-linecap="round" stroke-linejoin="round"/>
<path d="M29.34 14.83C29.51 13.91 36.87 15.48 36.73 16.22" stroke="black" stroke-width="0.3" stroke-linecap="round" stroke-linejoin="round"/>
<path d="M24.78 7.93C25.22 5.6 43.84 9.56 43.49 11.45" stroke="black" stroke-width="0.3" stroke-linecap="round" stroke-linejoin="round"/>
<mask id="mask1_75_3384" style="mask-type:luminance" maskUnits="userSpaceOnUse" x="19" y="5" width="25" height="79">
<path d="M36.73 16.22L43.49 11.46L43.79 9.86999C44.15 7.96999 25.52 4.01999 25.09 6.33999L24.79 7.92999L29.35 14.82L19.44 71.37L19.78 82.49C19.84 83.44 20.68 83.54 21.02 82.72L25.39 72.49L36.74 16.21L36.73 16.22Z" fill="white"/>
</mask>
<g mask="url(#mask1_75_3384)">
<path d="M28.18 19.33C29.09 16.06 35.59 16.48 36.85 17.91" stroke="#999999" stroke-width="0.3" stroke-linecap="round" stroke-linejoin="round"/>
<path d="M27.45 23.33C28.35 20.08 34.8 20.5 36.06 21.92" stroke="#999999" stroke-width="0.3" stroke-linecap="round" stroke-linejoin="round"/>
<path d="M26.71 27.32C27.61 24.09 34.01 24.51 35.26 25.92" stroke="#999999" stroke-width="0.3" stroke-linecap="round" stroke-linejoin="round"/>
<path d="M25.98 31.32C26.87 28.11 33.23 28.53 34.47 29.93" stroke="#999999" stroke-width="0.3" stroke-linecap="round" stroke-linejoin="round"/>
<path d="M25.25 35.32C26.14 32.13 32.45 32.55 33.68 33.94" stroke="#999999" stroke-width="0.3" stroke-linecap="round" stroke-linejoin="round"/>
<path d="M24.52 39.32C25.4 36.16 31.67 36.57 32.89 37.95" stroke="#999999" stroke-width="0.3" stroke-linecap="round" stroke-linejoin="round"/>
<path d="M23.79 43.32C24.66 40.18 30.89 40.59 32.1 41.96" stroke="#999999" stroke-width="0.3" stroke-linecap="round" stroke-linejoin="round"/>
<path d="M23.06 47.32C23.93 44.2 30.1 44.61 31.31 45.97" stroke="#999999" stroke-width="0.3" stroke-linecap="round" stroke-linejoin="round"/>
<path d="M22.33 51.31C23.19 48.22 29.32 48.62 30.52 49.97" stroke="#999999" stroke-width="0.3" stroke-linecap="round" stroke-linejoin="round"/>
<path d="M21.6 55.31C22.45 52.24 28.54 52.64 29.73 53.98" stroke="#999999" stroke-width="0.3" stroke-linecap="round" stroke-linejoin="round"/>
<path d="M20.87 59.31C21.72 56.26 27.76 56.66 28.94 57.99" stroke="#999999" stroke-width="0.3" stroke-linecap="round" stroke-linejoin="round"/>
<path d="M20.14 63.31C20.98 60.28 26.98 60.68 28.15 62" stroke="#999999" stroke-width="0.3" stroke-linecap="round" stroke-linejoin="round"/>
<path d="M19.41 67.31C20.25 64.31 26.2 64.7 27.36 66.01" stroke="#999999" stroke-width="0.3" stroke-linecap="round" stroke-linejoin="round"/>
<path d="M18.68 71.31C19.51 68.33 25.41 68.72 26.56 70.02" stroke="#999999" stroke-width="0.3" stroke-linecap="round" stroke-linejoin="round"/>
<path d="M18.82 74.94C19.53 72.4 24.39 72.62 25.67 73.66" stroke="#999999" stroke-width="0.3" stroke-linecap="round" stroke-linejoin="round"/>
<path d="M18.96 78.19C19.52 76.18 23.49 76.45 24.27 77.32" stroke="#999999" stroke-width="0.3" stroke-linecap="round" stroke-linejoin="round"/>
<path d="M19.1 81.79C19.46 80.5 21.71 80.45 22.72 80.88" stroke="#999999" stroke-width="0.3" stroke-linecap="round" stroke-linejoin="round"/>
</g>
<path d="M36.73 16.22L43.49 11.46L43.79 9.86999C44.15 7.96999 25.52 4.01999 25.09 6.33999L24.79 7.92999L29.35 14.82L19.44 71.37L19.78 82.49C19.84 83.44 20.68 83.54 21.02 82.72L25.39 72.49L36.74 16.21L36.73 16.22Z" stroke="black" stroke-width="0.5" stroke-linecap="round" stroke-linejoin="round"/>
<path d="M62.04 9.28999L67.59 3.15999L67.53 1.54999C67.46 -0.380006 48.42 -0.160006 48.51 2.20999L48.57 3.82999L54.53 9.55999L57.24 66.91L60.01 77.69C60.28 78.6 61.12 78.52 61.27 77.64L63.29 66.7L62.03 9.29999L62.04 9.28999Z" fill="white"/>
<path d="M60.02 8.11999L62.41 2.51999" stroke="#B3B3B3" stroke-width="0.3" stroke-linecap="round" stroke-linejoin="round"/>
<path d="M55.56 8.27L52.03 3.09" stroke="#B3B3B3" stroke-width="0.3" stroke-linecap="round" stroke-linejoin="round"/>
<path d="M54.53 9.54999C54.5 8.61999 62.02 8.52999 62.04 9.28999" stroke="black" stroke-width="0.3" stroke-linecap="round" stroke-linejoin="round"/>
<path d="M48.57 3.81999C48.49 1.44999 67.53 1.22999 67.59 3.15999" stroke="black" stroke-width="0.3" stroke-linecap="round" stroke-linejoin="round"/>
<mask id="mask2_75_3384" style="mask-type:luminance" maskUnits="userSpaceOnUse" x="48" y="0" width="20" height="79">
<path d="M62.04 9.28999L67.59 3.15999L67.53 1.54999C67.46 -0.380006 48.42 -0.160006 48.51 2.20999L48.57 3.82999L54.53 9.55999L57.24 66.91L60.01 77.69C60.28 78.6 61.12 78.52 61.27 77.64L63.29 66.7L62.03 9.29999L62.04 9.28999Z" fill="white"/>
</mask>
<g mask="url(#mask2_75_3384)">
<path d="M54.38 14.2C54.55 10.81 60.98 9.8 62.53 10.91" stroke="#999999" stroke-width="0.3" stroke-linecap="round" stroke-linejoin="round"/>
<path d="M54.54 18.26C54.71 14.89 61.1 13.89 62.63 15" stroke="#999999" stroke-width="0.3" stroke-linecap="round" stroke-linejoin="round"/>
<path d="M54.7 22.32C54.87 18.97 61.21 17.98 62.74 19.08" stroke="#999999" stroke-width="0.3" stroke-linecap="round" stroke-linejoin="round"/>
<path d="M54.87 26.38C55.04 23.05 61.33 22.07 62.85 23.16" stroke="#999999" stroke-width="0.3" stroke-linecap="round" stroke-linejoin="round"/>
<path d="M55.03 30.44C55.2 27.14 61.45 26.16 62.95 27.24" stroke="#999999" stroke-width="0.3" stroke-linecap="round" stroke-linejoin="round"/>
<path d="M55.19 34.5C55.35 31.22 61.56 30.25 63.06 31.33" stroke="#999999" stroke-width="0.3" stroke-linecap="round" stroke-linejoin="round"/>
<path d="M55.36 38.56C55.52 35.3 61.69 34.34 63.17 35.41" stroke="#999999" stroke-width="0.3" stroke-linecap="round" stroke-linejoin="round"/>
<path d="M55.52 42.62C55.68 39.39 61.8 38.43 63.27 39.49" stroke="#999999" stroke-width="0.3" stroke-linecap="round" stroke-linejoin="round"/>
<path d="M55.68 46.69C55.84 43.48 61.91 42.53 63.38 43.59" stroke="#999999" stroke-width="0.3" stroke-linecap="round" stroke-linejoin="round"/>
<path d="M55.84 50.75C56 47.57 62.03 46.62 63.48 47.67" stroke="#999999" stroke-width="0.3" stroke-linecap="round" stroke-linejoin="round"/>
<path d="M56.01 54.81C56.17 51.65 62.15 50.71 63.59 51.75" stroke="#999999" stroke-width="0.3" stroke-linecap="round" stroke-linejoin="round"/>
<path d="M56.17 58.87C56.33 55.73 62.26 54.8 63.69 55.84" stroke="#999999" stroke-width="0.3" stroke-linecap="round" stroke-linejoin="round"/>
<path d="M56.33 62.93C56.49 59.82 62.38 58.9 63.8 59.92" stroke="#999999" stroke-width="0.3" stroke-linecap="round" stroke-linejoin="round"/>
<path d="M56.5 66.99C56.65 63.9 62.5 62.99 63.91 64" stroke="#999999" stroke-width="0.3" stroke-linecap="round" stroke-linejoin="round"/>
<path d="M57.42 70.51C57.55 67.88 62.35 67.03 63.83 67.76" stroke="#999999" stroke-width="0.3" stroke-linecap="round" stroke-linejoin="round"/>
<path d="M58.28 73.64C58.39 71.56 62.32 70.94 63.27 71.63" stroke="#999999" stroke-width="0.3" stroke-linecap="round" stroke-linejoin="round"/>
<path d="M59.2 77.13C59.27 75.79 61.45 75.25 62.53 75.45" stroke="#999999" stroke-width="0.3" stroke-linecap="round" stroke-linejoin="round"/>
</g>
<path d="M62.04 9.28999L67.59 3.15999L67.53 1.54999C67.46 -0.380006 48.42 -0.160006 48.51 2.20999L48.57 3.82999L54.53 9.55999L57.24 66.91L60.01 77.69C60.28 78.6 61.12 78.52 61.27 77.64L63.29 66.7L62.03 9.29999L62.04 9.28999Z" stroke="black" stroke-width="0.5" stroke-linecap="round" stroke-linejoin="round"/>
<path d="M84.99 16.22L91.75 11.46L92.05 9.86999C92.41 7.96999 73.78 4.01999 73.35 6.33999L73.05 7.92999L77.61 14.82L67.7 71.37L68.04 82.49C68.1 83.44 68.94 83.54 69.28 82.72L73.65 72.49L85 16.21L84.99 16.22Z" fill="white"/>
<path d="M83.27 14.64L86.84 9.7" stroke="#B3B3B3" stroke-width="0.3" stroke-linecap="round" stroke-linejoin="round"/>
<path d="M78.88 13.8L76.58 7.97" stroke="#B3B3B3" stroke-width="0.3" stroke-linecap="round" stroke-linejoin="round"/>
<path d="M77.6 14.83C77.77 13.91 85.13 15.48 84.99 16.22" stroke="black" stroke-width="0.3" stroke-linecap="round" stroke-linejoin="round"/>
<path d="M73.04 7.93C73.48 5.6 92.1 9.56 91.75 11.45" stroke="black" stroke-width="0.3" stroke-linecap="round" stroke-linejoin="round"/>
<mask id="mask3_75_3384" style="mask-type:luminance" maskUnits="userSpaceOnUse" x="67" y="5" width="26" height="79">
<path d="M84.99 16.22L91.75 11.46L92.05 9.86999C92.41 7.96999 73.78 4.01999 73.35 6.33999L73.05 7.92999L77.61 14.82L67.7 71.37L68.04 82.49C68.1 83.44 68.94 83.54 69.28 82.72L73.65 72.49L85 16.21L84.99 16.22Z" fill="white"/>
</mask>
<g mask="url(#mask3_75_3384)">
<path d="M76.44 19.33C77.35 16.06 83.85 16.48 85.11 17.91" stroke="#999999" stroke-width="0.3" stroke-linecap="round" stroke-linejoin="round"/>
<path d="M75.71 23.33C76.61 20.08 83.06 20.5 84.32 21.92" stroke="#999999" stroke-width="0.3" stroke-linecap="round" stroke-linejoin="round"/>
<path d="M74.97 27.32C75.87 24.09 82.27 24.51 83.52 25.92" stroke="#999999" stroke-width="0.3" stroke-linecap="round" stroke-linejoin="round"/>
<path d="M74.25 31.32C75.14 28.11 81.5 28.53 82.74 29.93" stroke="#999999" stroke-width="0.3" stroke-linecap="round" stroke-linejoin="round"/>
<path d="M73.52 35.32C74.41 32.13 80.72 32.55 81.95 33.94" stroke="#999999" stroke-width="0.3" stroke-linecap="round" stroke-linejoin="round"/>
<path d="M72.78 39.32C73.66 36.16 79.93 36.57 81.15 37.95" stroke="#999999" stroke-width="0.3" stroke-linecap="round" stroke-linejoin="round"/>
<path d="M72.05 43.32C72.92 40.18 79.15 40.59 80.36 41.96" stroke="#999999" stroke-width="0.3" stroke-linecap="round" stroke-linejoin="round"/>
<path d="M71.32 47.32C72.19 44.2 78.36 44.61 79.57 45.97" stroke="#999999" stroke-width="0.3" stroke-linecap="round" stroke-linejoin="round"/>
<path d="M70.59 51.31C71.45 48.22 77.58 48.62 78.78 49.97" stroke="#999999" stroke-width="0.3" stroke-linecap="round" stroke-linejoin="round"/>
<path d="M69.86 55.31C70.71 52.24 76.8 52.64 77.99 53.98" stroke="#999999" stroke-width="0.3" stroke-linecap="round" stroke-linejoin="round"/>
<path d="M69.13 59.31C69.98 56.26 76.02 56.66 77.2 57.99" stroke="#999999" stroke-width="0.3" stroke-linecap="round" stroke-linejoin="round"/>
<path d="M68.4 63.31C69.24 60.28 75.24 60.68 76.41 62" stroke="#999999" stroke-width="0.3" stroke-linecap="round" stroke-linejoin="round"/>
<path d="M67.67 67.31C68.51 64.31 74.46 64.7 75.62 66.01" stroke="#999999" stroke-width="0.3" stroke-linecap="round" stroke-linejoin="round"/>
<path d="M66.94 71.31C67.77 68.33 73.67 68.72 74.82 70.02" stroke="#999999" stroke-width="0.3" stroke-linecap="round" stroke-linejoin="round"/>
<path d="M67.08 74.94C67.79 72.4 72.65 72.62 73.93 73.66" stroke="#999999" stroke-width="0.3" stroke-linecap="round" stroke-linejoin="round"/>
<path d="M67.22 78.19C67.78 76.18 71.75 76.45 72.53 77.32" stroke="#999999" stroke-width="0.3" stroke-linecap="round" stroke-linejoin="round"/>
<path d="M67.36 81.79C67.72 80.5 69.97 80.45 70.98 80.88" stroke="#999999" stroke-width="0.3" stroke-linecap="round" stroke-linejoin="round"/>
</g>
<path d="M84.99 16.22L91.75 11.46L92.05 9.86999C92.41 7.96999 73.78 4.01999 73.35 6.33999L73.05 7.92999L77.61 14.82L67.7 71.37L68.04 82.49C68.1 83.44 68.94 83.54 69.28 82.72L73.65 72.49L85 16.21L84.99 16.22Z" stroke="black" stroke-width="0.5" stroke-linecap="round" stroke-linejoin="round"/>
</g>
<defs>
<clipPath id="clip0_75_3384">
<rect width="92.3" height="83.54" fill="white"/>
</clipPath>
</defs>
</svg>

<svg xmlns="http://www.w3.org/2000/svg" width="93" height="84" fill="none" viewBox="0 0 93 84"><g clip-path="url(#a)"><path fill="#fff" d="m13.78 9.29 5.55-6.13-.06-1.61C19.21-.38.17-.16.25 2.21l.06 1.62 5.96 5.73 2.71 57.35 2.77 10.78c.27.91 1.11.83 1.26-.05l2.02-10.94-1.26-57.4z"/><path stroke="#b3b3b3" stroke-linecap="round" stroke-linejoin="round" stroke-width=".3" d="m11.76 8.12 2.39-5.6M7.29 8.27 3.77 3.09"/><path stroke="#000" stroke-linecap="round" stroke-linejoin="round" stroke-width=".3" d="M6.27 9.55c-.03-.93 7.49-1.02 7.51-.26M.31 3.82c-.08-2.37 18.96-2.59 19.02-.66"/><mask id="b" width="20" height="79" x="0" y="0" maskUnits="userSpaceOnUse" style="mask-type:luminance"><path fill="#fff" d="m13.78 9.29 5.55-6.13-.06-1.61C19.21-.38.17-.16.25 2.21l.06 1.62 5.96 5.73 2.71 57.35 2.77 10.78c.27.91 1.11.83 1.26-.05l2.02-10.94-1.26-57.4z"/></mask><g stroke="#999" stroke-linecap="round" stroke-linejoin="round" stroke-width=".3" mask="url(#b)"><path d="M6.12 14.2c.17-3.39 6.6-4.4 8.15-3.29M6.28 18.26c.17-3.37 6.56-4.37 8.09-3.26M6.44 22.32c.17-3.35 6.51-4.34 8.04-3.24M6.6 26.38c.17-3.33 6.46-4.31 7.98-3.22M6.77 30.44c.17-3.3 6.42-4.28 7.92-3.2M6.93 34.5c.16-3.28 6.37-4.25 7.87-3.17M7.09 38.56c.16-3.26 6.33-4.22 7.81-3.15M7.26 42.62c.16-3.23 6.28-4.19 7.75-3.13M7.42 46.69c.16-3.21 6.23-4.16 7.7-3.1M7.58 50.75c.16-3.18 6.19-4.13 7.64-3.08M7.75 54.81c.16-3.16 6.14-4.1 7.58-3.06M7.91 58.87c.16-3.14 6.09-4.07 7.52-3.03M8.07 62.93c.16-3.11 6.05-4.03 7.47-3.01M8.24 66.99c.15-3.09 6-4 7.41-2.99M9.16 70.51c.13-2.63 4.93-3.48 6.41-2.75M10.02 73.64c.11-2.08 4.04-2.7 4.99-2.01M10.94 77.13c.07-1.34 2.25-1.88 3.33-1.68"/></g><path stroke="#000" stroke-linecap="round" stroke-linejoin="round" stroke-width=".5" d="m13.78 9.29 5.55-6.13-.06-1.61C19.21-.38.17-.16.25 2.21l.06 1.62 5.96 5.73 2.71 57.35 2.77 10.78c.27.91 1.11.83 1.26-.05l2.02-10.94-1.26-57.4z"/><path fill="#fff" d="m36.73 16.22 6.76-4.76.3-1.59c.36-1.9-18.27-5.85-18.7-3.53l-.3 1.59 4.56 6.89-9.91 56.55.34 11.12c.06.95.9 1.05 1.24.23l4.37-10.23 11.35-56.28z"/><path stroke="#b3b3b3" stroke-linecap="round" stroke-linejoin="round" stroke-width=".3" d="m35.01 14.64 3.56-4.94M30.62 13.8l-2.3-5.83"/><path stroke="#000" stroke-linecap="round" stroke-linejoin="round" stroke-width=".3" d="M29.34 14.83c.17-.92 7.53.65 7.39 1.39M24.78 7.93c.44-2.33 19.06 1.63 18.71 3.52"/><mask id="c" width="25" height="79" x="19" y="5" maskUnits="userSpaceOnUse" style="mask-type:luminance"><path fill="#fff" d="m36.73 16.22 6.76-4.76.3-1.59c.36-1.9-18.27-5.85-18.7-3.53l-.3 1.59 4.56 6.89-9.91 56.55.34 11.12c.06.95.9 1.05 1.24.23l4.37-10.23 11.35-56.28z"/></mask><g stroke="#999" stroke-linecap="round" stroke-linejoin="round" stroke-width=".3" mask="url(#c)"><path d="M28.18 19.33c.91-3.27 7.41-2.85 8.67-1.42M27.45 23.33c.9-3.25 7.35-2.83 8.61-1.41M26.71 27.32c.9-3.23 7.3-2.81 8.55-1.4M25.98 31.32c.89-3.21 7.25-2.79 8.49-1.39M25.25 35.32c.89-3.19 7.2-2.77 8.43-1.38M24.52 39.32c.88-3.16 7.15-2.75 8.37-1.37M23.79 43.32c.87-3.14 7.1-2.73 8.31-1.36M23.06 47.32c.87-3.12 7.04-2.71 8.25-1.35M22.33 51.31c.86-3.09 6.99-2.69 8.19-1.34M21.6 55.31c.85-3.07 6.94-2.67 8.13-1.33M20.87 59.31c.85-3.05 6.89-2.65 8.07-1.32M20.14 63.31c.84-3.03 6.84-2.63 8.01-1.31M19.41 67.31c.84-3 6.79-2.61 7.95-1.3M18.68 71.31c.83-2.98 6.73-2.59 7.88-1.29M18.82 74.94c.71-2.54 5.57-2.32 6.85-1.28M18.96 78.19c.56-2.01 4.53-1.74 5.31-.87M19.1 81.79c.36-1.29 2.61-1.34 3.62-.91"/></g><path stroke="#000" stroke-linecap="round" stroke-linejoin="round" stroke-width=".5" d="m36.73 16.22 6.76-4.76.3-1.59c.36-1.9-18.27-5.85-18.7-3.53l-.3 1.59 4.56 6.89-9.91 56.55.34 11.12c.06.95.9 1.05 1.24.23l4.37-10.23 11.35-56.28z"/><path fill="#fff" d="m62.04 9.29 5.55-6.13-.06-1.61c-.07-1.93-19.11-1.71-19.02.66l.06 1.62 5.96 5.73 2.71 57.35 2.77 10.78c.27.91 1.11.83 1.26-.05l2.02-10.94-1.26-57.4z"/><path stroke="#b3b3b3" stroke-linecap="round" stroke-linejoin="round" stroke-width=".3" d="m60.02 8.12 2.39-5.6M55.56 8.27l-3.53-5.18"/><path stroke="#000" stroke-linecap="round" stroke-linejoin="round" stroke-width=".3" d="M54.53 9.55c-.03-.93 7.49-1.02 7.51-.26M48.57 3.82c-.08-2.37 18.96-2.59 19.02-.66"/><mask id="d" width="20" height="79" x="48" y="0" maskUnits="userSpaceOnUse" style="mask-type:luminance"><path fill="#fff" d="m62.04 9.29 5.55-6.13-.06-1.61c-.07-1.93-19.11-1.71-19.02.66l.06 1.62 5.96 5.73 2.71 57.35 2.77 10.78c.27.91 1.11.83 1.26-.05l2.02-10.94-1.26-57.4z"/></mask><g stroke="#999" stroke-linecap="round" stroke-linejoin="round" stroke-width=".3" mask="url(#d)"><path d="M54.38 14.2c.17-3.39 6.6-4.4 8.15-3.29M54.54 18.26c.17-3.37 6.56-4.37 8.09-3.26M54.7 22.32c.17-3.35 6.51-4.34 8.04-3.24M54.87 26.38c.17-3.33 6.46-4.31 7.98-3.22M55.03 30.44c.17-3.3 6.42-4.28 7.92-3.2M55.19 34.5c.16-3.28 6.37-4.25 7.87-3.17M55.36 38.56c.16-3.26 6.33-4.22 7.81-3.15M55.52 42.62c.16-3.23 6.28-4.19 7.75-3.13M55.68 46.69c.16-3.21 6.23-4.16 7.7-3.1M55.84 50.75c.16-3.18 6.19-4.13 7.64-3.08M56.01 54.81c.16-3.16 6.14-4.1 7.58-3.06M56.17 58.87c.16-3.14 6.09-4.07 7.52-3.03M56.33 62.93c.16-3.11 6.05-4.03 7.47-3.01M56.5 66.99c.15-3.09 6-4 7.41-2.99M57.42 70.51c.13-2.63 4.93-3.48 6.41-2.75M58.28 73.64c.11-2.08 4.04-2.7 4.99-2.01M59.2 77.13c.07-1.34 2.25-1.88 3.33-1.68"/></g><path stroke="#000" stroke-linecap="round" stroke-linejoin="round" stroke-width=".5" d="m62.04 9.29 5.55-6.13-.06-1.61c-.07-1.93-19.11-1.71-19.02.66l.06 1.62 5.96 5.73 2.71 57.35 2.77 10.78c.27.91 1.11.83 1.26-.05l2.02-10.94-1.26-57.4z"/><path fill="#fff" d="m84.99 16.22 6.76-4.76.3-1.59c.36-1.9-18.27-5.85-18.7-3.53l-.3 1.59 4.56 6.89-9.91 56.55.34 11.12c.06.95.9 1.05 1.24.23l4.37-10.23L85 16.21z"/><path stroke="#b3b3b3" stroke-linecap="round" stroke-linejoin="round" stroke-width=".3" d="m83.27 14.64 3.57-4.94M78.88 13.8l-2.3-5.83"/><path stroke="#000" stroke-linecap="round" stroke-linejoin="round" stroke-width=".3" d="M77.6 14.83c.17-.92 7.53.65 7.39 1.39M73.04 7.93c.44-2.33 19.06 1.63 18.71 3.52"/><mask id="e" width="26" height="79" x="67" y="5" maskUnits="userSpaceOnUse" style="mask-type:luminance"><path fill="#fff" d="m84.99 16.22 6.76-4.76.3-1.59c.36-1.9-18.27-5.85-18.7-3.53l-.3 1.59 4.56 6.89-9.91 56.55.34 11.12c.06.95.9 1.05 1.24.23l4.37-10.23L85 16.21z"/></mask><g stroke="#999" stroke-linecap="round" stroke-linejoin="round" stroke-width=".3" mask="url(#e)"><path d="M76.44 19.33c.91-3.27 7.41-2.85 8.67-1.42M75.71 23.33c.9-3.25 7.35-2.83 8.61-1.41M74.97 27.32c.9-3.23 7.3-2.81 8.55-1.4M74.25 31.32c.89-3.21 7.25-2.79 8.49-1.39M73.52 35.32c.89-3.19 7.2-2.77 8.43-1.38M72.78 39.32c.88-3.16 7.15-2.75 8.37-1.37M72.05 43.32c.87-3.14 7.1-2.73 8.31-1.36M71.32 47.32c.87-3.12 7.04-2.71 8.25-1.35M70.59 51.31c.86-3.09 6.99-2.69 8.19-1.34M69.86 55.31c.85-3.07 6.94-2.67 8.13-1.33M69.13 59.31c.85-3.05 6.89-2.65 8.07-1.32M68.4 63.31c.84-3.03 6.84-2.63 8.01-1.31M67.67 67.31c.84-3 6.79-2.61 7.95-1.3M66.94 71.31c.83-2.98 6.73-2.59 7.88-1.29M67.08 74.94c.71-2.54 5.57-2.32 6.85-1.28M67.22 78.19c.56-2.01 4.53-1.74 5.31-.87M67.36 81.79c.36-1.29 2.61-1.34 3.62-.91"/></g><path stroke="#000" stroke-linecap="round" stroke-linejoin="round" stroke-width=".5" d="m84.99 16.22 6.76-4.76.3-1.59c.36-1.9-18.27-5.85-18.7-3.53l-.3 1.59 4.56 6.89-9.91 56.55.34 11.12c.06.95.9 1.05 1.24.23l4.37-10.23L85 16.21z"/></g><defs><clipPath id="a"><path fill="#fff" d="M0 0h92.3v83.54H0z"/></clipPath></defs></svg>
